src/modules/75-cd/components/EnvironmentGroups/images/NoEnvironmentGroups.svg

<svg fill="none" viewBox="0 0 222 220" xmlns="http://www.w3.org/2000/svg"><path clip-rule="evenodd" d="m116.069 60.8779c-.003.0663.027.1298.08.1695l101.195 75.5276c.534.399.536 1.197.006 1.599l-107.323 81.308c-.356.27-.849.271-1.206.002l-107.80383-81.341c-.519433-.392-.532122-1.168-.025783-1.577l23.429913-18.912c.0723-.058.1752-.059.2485-.002l8.4324 6.562c.1569.122.1538.36-.0062.478l-14.9675 11.036c-.1076.079-.1086.24-.002.32l84.1255 63.685c.131.1.32.006.32-.16v-39.737l-102.172405-76.7103c-.532965-.4002-.532758-1.1999.000408-1.5997l108.434997-81.326001c.35-.2630733.832-.266967 1.187-.009608l110.725 80.275809c.566.4102.547 1.2592-.036 1.6442l-27.838 18.3806-8.991-8.7965c-.093-.0916-.075-.2469.037-.3144l16.474-9.907c.124-.0747.13-.2524.012-.3353l-82.316-57.5434c-.129-.0903-.307-.0026-.314.1548zm-10.491-40.5626c0-.1648-.188-.2589-.319-.1601l-81.4958 61.0767c-.1065.0798-.1068.2394-.0006.3196l85.3874 64.5065c.165.125.391.135.566.025l41.643-26.013c.072-.045.166-.039.232.015l10.383 8.494c.106.087.096.252-.02.324l-48.462 30.449c-.058.037-.094.101-.094.17v40.565c0 .167.191.26.322.159l81.328-62.743c.104-.08.103-.238-.001-.317l-84.754-64.7113c-.072-.0554-.173-.0547-.245.0018l-36.8032 28.9875c-.0767.061-.1857.057-.2581-.009l-9.0871-8.2365c-.0918-.0831-.0867-.2288.0106-.3054l41.5918-32.7169c.048-.0379.076-.0959.076-.1572z" fill="#f3f3fa" fill-rule="evenodd"/></svg>

<svg viewBox="0 0 222 220" fill="none" xmlns="http://www.w3.org/2000/svg">
<path fill-rule="evenodd" clip-rule="evenodd" d="M116.069 60.8779C116.066 60.9442 116.096 61.0077 116.149 61.0474L217.344 136.575C217.878 136.974 217.88 137.772 217.35 138.174L110.027 219.482C109.671 219.752 109.178 219.753 108.821 219.484L1.01717 138.143C0.497737 137.751 0.485048 136.975 0.991387 136.566L24.4213 117.654C24.4936 117.596 24.5965 117.595 24.6698 117.652L33.1022 124.214C33.2591 124.336 33.256 124.574 33.096 124.692L18.1285 135.728C18.0209 135.807 18.0199 135.968 18.1265 136.048L102.252 199.733C102.383 199.833 102.572 199.739 102.572 199.573V159.836L0.399595 83.1257C-0.13337 82.7255 -0.133163 81.9258 0.400003 81.526L108.835 0.199999C109.185 -0.0630743 109.667 -0.066968 110.022 0.190391L220.747 80.4662C221.313 80.8764 221.294 81.7254 220.711 82.1104L192.873 100.491L183.882 91.6945C183.789 91.6029 183.807 91.4476 183.919 91.3801L200.393 81.4731C200.517 81.3984 200.523 81.2207 200.405 81.1378L118.089 23.5944C117.96 23.5041 117.782 23.5918 117.775 23.7492L116.069 60.8779ZM105.578 20.3153C105.578 20.1505 105.39 20.0564 105.259 20.1552L23.7632 81.2319C23.6567 81.3117 23.6564 81.4713 23.7626 81.5515L109.15 146.058C109.315 146.183 109.541 146.193 109.716 146.083L151.359 120.07C151.431 120.025 151.525 120.031 151.591 120.085L161.974 128.579C162.08 128.666 162.07 128.831 161.954 128.903L113.492 159.352C113.434 159.389 113.398 159.453 113.398 159.522V200.087C113.398 200.254 113.589 200.347 113.72 200.246L195.048 137.503C195.152 137.423 195.151 137.265 195.047 137.186L110.293 72.4747C110.221 72.4193 110.12 72.42 110.048 72.4765L73.2448 101.464C73.1681 101.525 73.0591 101.521 72.9867 101.455L63.8996 93.2185C63.8078 93.1354 63.8129 92.9897 63.9102 92.9131L105.502 60.1962C105.55 60.1583 105.578 60.1003 105.578 60.039V20.3153Z" fill="#F3F3FA"/>
</svg>
